X:1
T:Title
%%score { 1 | ( 2 3 ) }
L:1/8
M:4/4
K:Ab
V:1 treble nm="Grand Piano"
V:2 bass 
V:3 bass 
V:1
 z4 z2[Q:1/4=94] E>E | A>A A>B A>G F>G |[M:3/4] A>[EA] B>B c2 |[M:1/4] c>c | %4
[M:4/4] d>B e>d c>[EB] [EA]>[EG] |[M:7/8] [EF]>[EG][=DA]>[Dc] B3 |[M:1/4] E>E | %7
[M:4/4] [CA]>A A>B A>G F>G |[M:3/4] A>[EA] B>B c2 |[M:1/4] c>d | %10
[M:35/32] e>ee>f[_Ge]/ [Fd]2- [Fd]/(3:2:4[FA]3/2-[FA]/4[FB]3/4-[FB]/8 | %11
[M:3/4] (3:2:4c3 B3/2D3/2 [CA]3 |[M:1/4] (3EFG | %13
[M:4/4] (9:8:7[CA]2- [E,CA]2 B/ [DA]3/2[DG]/[DG]/- [DG]2 | %14
 (9:8:7[DB]2- [E,DB]2 c/ [DB]3/2[CA]/[CA]/- [CA]2 | (9:8:8[Ec]- [Ec]3 =d/ e3/2B/B/-B3/2A/ | %16
[M:3/4] (3G3 [=DF]3 E3 |[M:1/4] (3EFG |[M:4/4] (9:8:7[CA]2- [E,CA]2 B/ [DA]3/2[DG]/[DG]/- [DG]2 | %19
 (9:8:7[DB]2- [E,DB]2 c/ [DB]3/2[CA]/[CA]/- [CA]2 | (9:8:8[Ec]- [Ec]3 d/ e3/2c/A/-A3/2[FBd]/ | %21
[M:3/4] (3[EAc]3 [DGB]3 [CEA]3 |] %22
V:2
 z4 z2 E,>E, | [A,CE]>[A,CE] [E,CE]>[E,CE] [B,DE]>[B,DE] [E,D]>[E,DE] | %2
[M:3/4] [A,CE]>[C,A,] [E,G,E]>[E,G,E] [A,E]2 |[M:1/4] [A,E]>[A,E] | %4
[M:4/4] [G,B,E]>[G,B,E] [G,B,E]>[G,B,E] [A,E]>[B,,G,] [C,A,]>[C,A,] | %5
[M:7/8] [B,,B,]>[B,,B,][B,,F,]>[B,,A,] [E,G,E]3 |[M:1/4] [E,G,D]>[D,G,D] | %7
[M:4/4] [A,,A,]>[A,CE] [E,CE]>[E,CE] [B,DE]>[B,DE] [E,D]>[E,DE] | %8
[M:3/4] [A,CE]>[C,A,] [E,G,E]>[E,G,E][K:treble] [A,E]2 |[M:1/4] [A,CE]>[A,B,E] | %10
[M:35/32] [A,CA]>[A,CA][A,C_G]>[A,CG][K:bass][D,D]/ [D,D]2- [D,D]/(3:2:4[D,D]3/2-[D,D]/4[D,A,]3/4-[D,A,]/8 | %11
[M:3/4] (3[E,A,E]3 .[E,G,E]3 [A,,A,]3 |[M:1/4] [E,G,D]2 |[M:4/4] E,2- E,/4 z/4 z/ z z4 | %14
 E,2- E,/4 z/4 z/ z z4 | %15
 (9:8:8A,2 A,2[K:treble] [A,F]/ [G,B,E]3/2[G,B,E]/[G,B,E]/-[G,B,E]3/2[A,CF]/ | %16
[M:3/4][K:bass] (3[B,E]3 [B,,A,]3 [E,G,]3 |[M:1/4] [E,G,D]2 |[M:4/4] E,2- E,/4 z/4 z/ z z4 | %19
 E,2- E,/4 z/4 z/ z z4 | (9:8:8A,2 A,2 [A,B,E]/ [A,CE]3/2[A,E]/[F,CF]/-[F,CF]3/2D,/ | %21
[M:3/4] (3E,3 E,3 A,3 |] %22
V:3
 x8 | x8 |[M:3/4] x6 |[M:1/4] x2 |[M:4/4] x8 |[M:7/8] x7 |[M:1/4] x2 |[M:4/4] x8 | %8
[M:3/4] x4[K:treble] x2 |[M:1/4] x2 |[M:35/32] x4[K:bass] x19/4 |[M:3/4] x6 |[M:1/4] x2 | %13
[M:4/4] (7:8:5A,,3/2E,,3/2.C/ [B,,E,]3/2 [E,,E,]2 | (7:8:5G,,3/2E,,3/2.D/ [A,,E,]3/2 [E,,E,]2 | %15
 x57/16[K:treble] x89/20 |[M:3/4][K:bass] x6 |[M:1/4] x2 | %18
[M:4/4] (7:8:5A,,3/2E,,3/2.C/ [B,,E,]3/2 [E,,E,]2 | (7:8:5G,,3/2E,,3/2.D/ [A,,E,]3/2 [E,,E,]2 | %20
 x8 |[M:3/4] x6 |] %22

